X:3639
T:Les ventres noirs (version Esbelin/Denécheau)
O:england
D:D. Denécheau
M:3/8
L:1/16
K:C
defgfe|d2def2|g2fgfe|dec4|\
defgfe|d2def2|gagfef|g6:|
|:defede|c2dedc|B2A2B2|c2d4|\
defede|c2dedc|B2A2B2|c6:|


